X:22
T:Cat that Kittled in Jamie's Wig (h)
B:NFID.079a
022cat
S:JD
N:Version of "Loch Leven" ("Women's Rock" or "Cliff" in other
collections) - but I like Doherty's name better! (I checked -
"kittled" means "had kittens")
L:1/8
M:C
R:hornpipe
Q:240
K:Am
cB|: A<A,A,B, CDE^F|GA (3G^FE G2cB|A<A,A,B, CDEd|(3cBA (3BA^G AecB|
A<A,A,B, CDE^F|GA (3G^FE G2cd|(3edc (3Bcd (3cBc (3e^fg|
[1 (3ABc (3BA^G ABcB:|2 (3ABc (3BA^G ABcd||
e<aa^f gfgd|e<aa^f g2 (3Bcd|e<aa^f gfe^d|(3e^fg (3dcB A2cd|
e<aa^f gfgd|e<aa^f gfga|(3bag (3^fga (3gfg (3Bcd|\
(3e^fg (3dcB (3cec (3BeB||

%%%

